X:1
T:Title
%%score { ( 1 3 6 ) | ( 2 4 5 ) }
L:1/8
Q:1/4=100
M:4/4
K:Ab
V:1 treble nm="Grand Piano"
V:3 treble 
V:6 treble 
V:2 bass 
V:4 bass 
V:5 bass 
V:1
 [CE]2 [Ec]2- [Ec][CE][CF][CE] | =D2 [DB]2- [DB][DB][D=A][DB] | c2 B2 F2 G2 | E8[K:treble] | %4
w: Adam~Geibel * * * * *||||
 [CE]2 [Ec]2- [Ec][CE][CF][CE] | =D2 [DB]2- [DB][DB][D=A][DB] | [=D=d]2 [Dc]2 [DA]2 [DF]2 | %7
w: |||
[M:7/8] z z z2 d3 |[M:1/4][K:bass] E,D, |[M:4/4] C,2[K:treble] [EAc]2 z2 [EAc]2 | %10
w: |||
 z2 [EAc]2 [Ac]2 [EAc]2 | z2 [FAd]2 z2 [FAd]2 | z2 [Ac]2 [Ac]2 [EAc]2 | z2 [EAc]2 z2 [EAc]2 | %14
w: ||||
 z2 [EAc]2 [Ac]2 [EAc]2 | z2 [=DAB]2 z2 [DAB]2 | z2 [GB]2 [GB]2 z2 | C2 E2 A2 B2 | [Ec]2 z2 z BAG | %19
w: |||||
 [DF]2 [A,DG]2 [FA]2 [B,FB]2 | [=Ec]6 z2 | [=Af]2 [ce]2 d2 BB | [Ge]2 [Bd]2 c2 AA | %23
w: ||||
 [FB]2 [Fe][Fd] [Gc]2 [GB]2 | [EA]6 z2 |] %25
w: ||
V:2
 [A,,A,]2 [A,,A,]2- [A,,A,][A,,A,][A,,A,][A,,A,] | %1
 [B,,A,]2 [B,,A,]2- [B,,A,][B,,A,][B,,A,][B,,A,] | [E,G,D]2 [E,G,D]2 [E,B,D]2 [E,B,D]2 | %3
 A,,2 =A,,2 B,,2 E,2 | [A,,A,]2 [A,,A,]2- [A,,A,][A,,A,][A,,A,][A,,A,] | %5
 [B,,A,]2 [B,,A,]2- [B,,A,][B,,A,][B,,A,][B,,A,] | [B,,A,]2 [B,,A,]2 [B,,F,]2 [B,,A,]2 | %7
[M:7/8] [E,G,]-[E,G,]-[E,G,]- [E,G,]- [E,G,]3 |[M:1/4] z2 |[M:4/4] z2 E,2 A,2 B,2 | z4 E2 z2 | %11
 F,2 A,2 D2 F,2 | z2 E2 E2 E,D, | C,2 E,2 A,2 B,2 | z4 E2 z2[K:bass] | F,2 C2 B,2 F,2 | %16
 z2 D2 D2 ED | A,,2 [E,A,C]2 [E,A,C]2 [E,G,D]2 | A,,2 [E,A,]2 z DCE | D,2 F,2 D,2 F,2 | %20
 C,2 =E,2 E,2 CC | [F,C]2[K:treble] [=A,F]2 [B,FB]2[K:bass] B,B, | %22
 [E,B,]2[K:treble] [G,E]2 [A,EA]2[K:bass] [A,CE][A,CE] | [D,B,]2 [C,=A,][D,B,] [E,E]2 [E,D]2 | %24
 [A,C]6 z2 |] %25
V:3
 x8 | x8 | x8 | [A,C]2 [_G,C]2[K:treble] [=G,D]4 | x8 | x8 | x8 |[M:7/8] E-E-E- E- E2- E/ z/ | %8
[M:1/4][K:bass] x2 |[M:4/4] x2[K:treble] x6 | x8 | x8 | x8 | x8 | x8 | x8 | x8 | x8 | z2 [Ec]4 z2 | %19
 x8 | z2 [G,C]2 [G,C]2 cc | x8 | x8 | x8 | x8 |] %25
V:4
 x8 | x8 | x8 | x8 | x8 | x8 | x8 |[M:7/8] x7 |[M:1/4] x2 |[M:4/4] x8 | z2 C4 z2 | x8 | E,6 z2 | %13
 x8 | z2 C4 z2[K:bass] | x8 | B,6 z2 | x8 | z4 E,2 [E,A,]2 | x8 | x8 | x2[K:treble] x4[K:bass] x2 | %22
 x2[K:treble] x4[K:bass] x2 | x8 | x8 |] %25
V:5
 x8 | x8 | x8 | x8 | x8 | x8 | x8 |[M:7/8] x7 |[M:1/4] x2 |[M:4/4] x8 | C2 z2 z B,A,G, | x8 | x8 | %13
 x8 | C2 z2 z B,A,[K:bass]G, | x8 | x8 | x8 | x8 | x8 | x8 | x2[K:treble] x4[K:bass] x2 | %22
 x2[K:treble] x4[K:bass] x2 | x8 | x8 |] %25
V:6
 x8 | x8 | x8 | x4[K:treble] x4 | x8 | x8 | x8 |[M:7/8] x7 |[M:1/4][K:bass] x2 | %9
[M:4/4] x2[K:treble] x6 | x8 | x8 | x8 | x8 | x8 | x8 | x8 | x8 | z4 A,2 z2 | x8 | x8 | x8 | x8 | %23
 x8 | x8 |] %25

